X:1
T:Herr Jesu Christ, Wahr Mensch und Gott, LM
T:Herr Jesu Christ, Wahr Mensch und Gott, LM
T:Attributed to Johann Eccard, 1597
T:Public Domain Courtesy of the Cyber Hymnal™
C:Attributed to Johann Eccard, 1597
Z:Public Domain
Z:Courtesy of the Cyber Hymnal™
%%score ( 1 2 ) ( 3 4 )
L:1/8
Q:1/4=110
M:none
K:F
V:1 treble 
V:2 treble 
V:3 bass 
V:4 bass 
V:1
 [A,F]2 [B,F]2 [CF]2 | (D3 [CE] [DF]2) [EG]2 [FA]2 [EG]2 x4 | F6 A2 A2 [DA]2 | %3
 [Dd]4 [Ec]2 [Fc]4 [F=B]2 | [Ec]6 A2 A2 [CA]2 | (B3 A G2) [_EA]2 G2 ^F2 | [DG]6 A2 A2 [DA]2 | %7
 [DG]4 [DF]2 [CF]4 [CE]2 | [CF]6 |] %9
V:2
 x6 | D3 x13 | F6 D4 x2 | x12 | x6 C4 x2 | B,6 D4 x2 | x6 D4 x2 | x12 | x6 |] %9
V:3
 [F,,F,]2 [G,,F,]2 [A,,F,]2 | (F,4 z2) C4 x6 | [D,A,]6 F,2 F,2 [C,F,]2 | %3
 (F,2 B,2) [C,A,]2 (A,2 G,2) [D,F,]2 | [C,G,]6 F,4 [E,F,]2 | ([D,F,]4 [_E,G,]2) [C,C]2 [D,A,]4 | %6
 [G,B,]6 [D,F,]4 [D,F,]2 | B,4 [D,A,]2 [A,,A,]2 [C,G,]4 | [F,A,]6 |] %9
V:4
 x6 | B,,6 (B,4 G,2) F,2 C,2 | x6 D,4 x2 | B,,4 D,4 x4 | x6 F,4 x2 | x12 | x12 | (B,,3 C,) x8 | %8
 x6 |] %9

